svgs/sharp-light/manat-sign.svg

<svg xmlns="http://www.w3.org/2000/svg" viewBox="0 0 384 512"><!--! Font Awesome Pro 6.6.0 by @fontawesome - https://fontawesome.com License - https://fontawesome.com/license (Commercial License) Copyright 2024 Fonticons, Inc. --><path d="M208 32l-32 0 0 64.7C77.4 104.8 0 187.3 0 288L0 464l0 16 32 0 0-16 0-176c0-83 63.1-151.2 144-159.2L176 480l32 0 0-351.2c80.9 8 144 76.2 144 159.2l0 176 0 16 32 0 0-16 0-176c0-100.7-77.4-183.2-176-191.3L208 32z"/></svg>

<svg xmlns="http://www.w3.org/2000/svg" viewBox="0 0 384 512"><!--! Font Awesome Pro 6.5.2 by @fontawesome - https://fontawesome.com License - https://fontawesome.com/license (Commercial License) Copyright 2024 Fonticons, Inc. --><path d="M208 32H176V96.7C77.4 104.8 0 187.3 0 288V464v16H32V464 288c0-83 63.1-151.2 144-159.2V480h32V128.8c80.9 8 144 76.2 144 159.2V464v16h32V464 288c0-100.7-77.4-183.2-176-191.3V32z"/></svg>
